pages/travel-inside/img/svg/fb.svg

<svg width="25" height="25" viewBox="0 0 25 25" fill="none" xmlns="http://www.w3.org/2000/svg">
<path d="M14.5157 24.8374C14.4116 24.8544 14.3071 24.87 14.2021 24.8843C14.3071 24.87 14.4116 24.8544 14.5157 24.8374Z" fill="black"/>
<path d="M14.7651 24.7947C14.7153 24.8038 14.6655 24.8122 14.6157 24.8208C14.6655 24.8122 14.7153 24.8038 14.7651 24.7947Z" fill="black"/>
<path d="M13.9235 24.9192C13.8016 24.9329 13.6789 24.9451 13.5559 24.9554C13.6789 24.9451 13.8016 24.9329 13.9235 24.9192Z" fill="black"/>
<path d="M14.1626 24.8894C14.104 24.8972 14.0451 24.9045 13.9863 24.9113C14.0451 24.9045 14.104 24.8972 14.1626 24.8894Z" fill="black"/>
<path d="M15.1054 24.7268C15.0615 24.7362 15.0174 24.7455 14.9734 24.7545C15.0174 24.7455 15.0615 24.7362 15.1054 24.7268Z" fill="black"/>
<path d="M15.9512 24.5171C15.9157 24.5272 15.8802 24.5367 15.8447 24.5467C15.8802 24.5367 15.9157 24.5272 15.9512 24.5171Z" fill="black"/>
<path d="M15.6946 24.5872C15.6561 24.5973 15.6173 24.6076 15.5786 24.6173C15.6173 24.6076 15.6561 24.5975 15.6946 24.5872Z" fill="black"/>
<path d="M15.3615 24.6704C15.3207 24.6799 15.2795 24.6889 15.2383 24.6981C15.2795 24.6889 15.3207 24.6799 15.3615 24.6704Z" fill="black"/>
<path d="M13.5514 24.9558C13.4856 24.9613 13.4198 24.9663 13.3538 24.9707C13.4198 24.9663 13.4856 24.9613 13.5514 24.9558Z" fill="black"/>
<path d="M25 12.5C25 5.5975 19.4025 0 12.5 0C5.5975 0 0 5.5975 0 12.5C0 19.4025 5.5975 25 12.5 25C12.5734 25 12.6465 24.9985 12.7197 24.9971V15.2664H10.0342V12.1367H12.7197V9.83353C12.7197 7.16248 14.3503 5.70869 16.733 5.70869C17.874 5.70869 18.8547 5.79376 19.1406 5.83172V8.62331H17.4976C16.2014 8.62331 15.9504 9.23939 15.9504 10.1433V12.1367H19.0498L18.6459 15.2664H15.9504V24.5171C21.1752 23.0192 25 18.2056 25 12.5Z" fill="black"/>
<path d="M13.3251 24.9724C13.195 24.9808 13.0644 24.9875 12.9333 24.9919C13.0644 24.9875 13.195 24.9808 13.3251 24.9724Z" fill="black"/>
<path d="M12.928 24.9924C12.8589 24.9947 12.7897 24.9964 12.7205 24.9976C12.7897 24.9964 12.8589 24.9947 12.928 24.9924Z" fill="black"/>
</svg>

<svg xmlns="http://www.w3.org/2000/svg" width="25" height="25" fill="none"><path fill="#000" d="M14.52 24.84zM14.77 24.8l-.15.02.15-.03zM13.92 24.92zM14.16 24.89zM15.1 24.73zM15.95 24.52l-.1.03.1-.03zM15.7 24.59l-.12.03.11-.03zM15.36 24.67l-.12.03.12-.03zM13.55 24.96zM25 12.5A12.5 12.5 0 1012.5 25h.22v-9.73h-2.69v-3.13h2.69v-2.3c0-2.68 1.63-4.13 4.01-4.13 1.14 0 2.12.08 2.41.12v2.8H17.5c-1.3 0-1.55.6-1.55 1.51v2h3.1l-.4 3.13h-2.7v9.25A12.5 12.5 0 0025 12.5zM13.33 24.97zM12.93 25z"/></svg>
